X: 2130
T: SUSIE BRODIE
Q: "Strathspey."
R: Strathspey.
%R: strathspey
B: James Kerr "Merry Melodies" v.2 p.16 #130
Z: 2016 John Chambers <jc:trillian.mit.edu>
M: C
L: 1/8
K: G
ug |:\
vd<GB<G c<=FAu>g | d<GB<G d<GB<uG |\
c<aB<g c<=FA<c | vd>vcuB>uA d<GB<g :|\
G<g d<g c<=F A>uc |
G<g d<g G<g B<G |\
[1 c<aB<g c<=FA>c | vd>vcuB>uA d<GB<g |\
[2 (3cac (3BgB c<=FA>c | d>cB>A d<GB<g |]

%%sep 1 1 500
%%sep 1 1 500

